svg/N_Arrows/49.svg

<svg xmlns="http://www.w3.org/2000/svg" viewBox="0 0 744.09 1052.36" xmlns:xlink="http://www.w3.org/1999/xlink"><defs><path id="0" d="m321.43 270.93h68.57v74.28h-68.57z"/></defs><g transform="matrix(2.49016 0 0 2.50142-469.11-790.47)" stroke="#000"><g transform="translate(-76.14 1.308)"><path d="m394.5 542.86c5 3.306 10 2.744 15 0l-5-10h-5l-5 10z" fill-rule="evenodd"/><path transform="matrix(.99661 0 0 .9928 1.297 3.94)" d="M418.20314 529.48199A16.541248 16.541248 0 1 1 385.12065 529.48199 16.541248 16.541248 0 1 1 418.20314 529.48199z" opacity=".97" fill="none" stroke-width="2.687"/><g fill-rule="evenodd"><path d="m388.83 522.36c-3.306 5-2.744 10 0 15l10-5v-5l-10-5z"/><path d="m414.78 537.29c3.306-5 2.744-10 0-15l-10 5v5l10 5z"/><path d="m409.16 516.68c-5-3.306-10-2.744-15 0l5 10h5l5-10z"/><path d="m387.62 519l3.536-3.536-5.148-1.923 1.613 5.458z"/><path d="m391.51 543.95l-3.536-3.536-1.923 5.148 5.458-1.613z"/><path d="m416.01 518.95l-3.536-3.536 5.148-1.923-1.613 5.458z"/><path d="m411.94 544.21l3.536-3.536 1.923 5.148-5.458-1.613z"/></g><path transform="matrix(1.05626 0 0 1.04508-24.355-26.648)" d="M425.40049 532.25989A21.844549 21.844549 0 1 1 381.71139 532.25989 21.844549 21.844549 0 1 1 425.40049 532.25989z" opacity=".97" fill="none" stroke-width="1.381"/></g><g fill="none"><path d="M369.71582 530.49213A44.06791 44.06791 0 1 1 281.58001 530.49213 44.06791 44.06791 0 1 1 369.71582 530.49213z" opacity=".97" stroke-width="1.451"/><g fill-rule="evenodd"><path d="m349.51 531.12l20.487-.253v.505"/><path d="m301.78 531.63h-19.951"/><path d="m326.03 507.36v-22.2"/><path d="m326.28 553.85l.253 20.2"/><path d="m342.19 513.7l12.811-16.336"/><path d="m341.43 547.36l13.13 16.591"/><path d="m309.36 547.36l-13.89 14.318"/><path d="m309.36 514.2l-12.627-18.18"/></g><path d="M382.59529 532.00732A52.14912 49.623745 0 1 1 278.29704 532.00732 52.14912 49.623745 0 1 1 382.59529 532.00732z" transform="matrix(.9999 0 0 1.01516-4.764-9.579)" opacity=".97" stroke-width="1.451"/></g><g fill-rule="evenodd"><path d="m369.29 526.58c1.056 2.97.855 6.137 0 9.406l8.127-4.938-8.127-4.468z" stroke-width=".085"/><path d="m331.13 574.17c-2.971.964-6.139.781-9.41 0l4.94 7.42 4.47-7.42z" stroke-width=".081"/><path d="m281.74 527.42c-1.056 2.97-.855 6.137 0 9.406l-8.127-4.938 8.127-4.468z" stroke-width=".085"/><path d="m321.72 487.18c2.859-.964 5.908-.781 9.06 0l-4.754-7.421-4.302 7.421z" stroke-width=".08"/></g></g><g font-family="Arial Black" font-size="56"><flowRoot transform="translate(154.49 241.29)"><flowRegion><use xlink:href="#0"/></flowRegion><flowPara>E</flowPara></flowRoot><flowRoot transform="translate(-6.392 80.04)"><flowRegion><use xlink:href="#0"/></flowRegion><flowPara>N</flowPara></flowRoot><flowRoot transform="translate(2.942 395.4)"><flowRegion><use xlink:href="#0"/></flowRegion><flowPara>S</flowPara></flowRoot><flowRoot transform="translate(-173.25 250.52)"><flowRegion><use xlink:href="#0"/></flowRegion><flowPara>W</flowPara></flowRoot></g></svg>

<?xml version="1.0" encoding="UTF-8" standalone="no"?>
<!-- Created with Inkscape (http://www.inkscape.org/) -->
<svg
   xmlns:dc="http://purl.org/dc/elements/1.1/"
   xmlns:cc="http://web.resource.org/cc/"
   xmlns:rdf="http://www.w3.org/1999/02/22-rdf-syntax-ns#"
   xmlns:svg="http://www.w3.org/2000/svg"
   xmlns="http://www.w3.org/2000/svg"
   xmlns:sodipodi="http://sodipodi.sourceforge.net/DTD/sodipodi-0.dtd"
   xmlns:inkscape="http://www.inkscape.org/namespaces/inkscape"
   width="744.09448819"
   height="1052.3622047"
   id="svg2"
   sodipodi:version="0.32"
   inkscape:version="0.44.1"
   sodipodi:docbase="F:\Qgis N_arrows\TOT"
   sodipodi:docname="29T.svg"
   inkscape:export-filename="F:\Qgis N_arrows\TOT\29T.png"
   inkscape:export-xdpi="300"
   inkscape:export-ydpi="300">
  <defs
     id="defs4" />
  <sodipodi:namedview
     id="base"
     pagecolor="#ffffff"
     bordercolor="#666666"
     borderopacity="1.0"
     inkscape:pageopacity="0.0"
     inkscape:pageshadow="2"
     inkscape:zoom="1.4"
     inkscape:cx="372.47462"
     inkscape:cy="498.96971"
     inkscape:document-units="px"
     inkscape:current-layer="layer1"
     showgrid="true"
     inkscape:window-width="1280"
     inkscape:window-height="744"
     inkscape:window-x="-4"
     inkscape:window-y="-4" />
  <metadata
     id="metadata7">
    <rdf:RDF>
      <cc:Work
         rdf:about="">
        <dc:format>image/svg+xml</dc:format>
        <dc:type
           rdf:resource="http://purl.org/dc/dcmitype/StillImage" />
      </cc:Work>
    </rdf:RDF>
  </metadata>
  <g
     inkscape:label="Livello 1"
     inkscape:groupmode="layer"
     id="layer1">
    <g
       id="g4849">
      <g
         transform="matrix(2.490164,0,0,2.501418,-469.1066,-790.4677)"
         id="g4623">
        <g
           id="g3669"
           transform="translate(-76.14023,1.308439)">
          <path
             sodipodi:nodetypes="ccccc"
             id="path1872"
             d="M 394.5,542.86218 C 399.5,546.16789 404.5,545.60644 409.5,542.86218 L 404.5,532.86218 L 399.5,532.86218 L 394.5,542.86218 z "
             style="fill:black;fill-opacity:1;fill-rule:evenodd;stroke:black;stroke-width:1px;stroke-linecap:butt;stroke-linejoin:miter;stroke-opacity:1" />
          <path
             transform="matrix(0.996614,0,0,0.992796,1.297126,3.940326)"
             d="M 418.20314 529.48199 A 16.541248 16.541248 0 1 1  385.12065,529.48199 A 16.541248 16.541248 0 1 1  418.20314 529.48199 z"
             sodipodi:ry="16.541248"
             sodipodi:rx="16.541248"
             sodipodi:cy="529.48199"
             sodipodi:cx="401.6619"
             id="path1874"
             style="opacity:0.97000002;fill:none;fill-opacity:1;stroke:black;stroke-width:2.68700004;stroke-miterlimit:4;stroke-dasharray:none;stroke-opacity:1"
             sodipodi:type="arc" />
          <path
             sodipodi:nodetypes="ccccc"
             id="path1876"
             d="M 388.8336,522.36077 C 385.52789,527.36077 386.08934,532.36077 388.8336,537.36077 L 398.8336,532.36077 L 398.8336,527.36077 L 388.8336,522.36077 z "
             style="fill:black;fill-opacity:1;fill-rule:evenodd;stroke:black;stroke-width:1px;stroke-linecap:butt;stroke-linejoin:miter;stroke-opacity:1" />
          <path
             sodipodi:nodetypes="ccccc"
             id="path1880"
             d="M 414.78104,537.29082 C 418.08675,532.29082 417.5253,527.29082 414.78104,522.29082 L 404.78104,527.29082 L 404.78104,532.29082 L 414.78104,537.29082 z "
             style="fill:black;fill-opacity:1;fill-rule:evenodd;stroke:black;stroke-width:1px;stroke-linecap:butt;stroke-linejoin:miter;stroke-opacity:1" />
          <path
             sodipodi:nodetypes="ccccc"
             id="path1882"
             d="M 409.16055,516.6836 C 404.16055,513.37789 399.16055,513.93934 394.16055,516.6836 L 399.16055,526.6836 L 404.16055,526.6836 L 409.16055,516.6836 z "
             style="fill:black;fill-opacity:1;fill-rule:evenodd;stroke:black;stroke-width:1px;stroke-linecap:butt;stroke-linejoin:miter;stroke-opacity:1" />
          <path
             id="path1884"
             d="M 387.61799,519.00176 L 391.15352,515.46623 L 386.00508,513.54361 L 387.61799,519.00176 z "
             style="fill:black;fill-opacity:1;fill-rule:evenodd;stroke:black;stroke-width:1px;stroke-linecap:butt;stroke-linejoin:miter;stroke-opacity:1" />
          <path
             id="path1886"
             d="M 391.51153,543.95406 L 387.976,540.41854 L 386.05338,545.56698 L 391.51153,543.95406 z "
             style="fill:black;fill-opacity:1;fill-rule:evenodd;stroke:black;stroke-width:1px;stroke-linecap:butt;stroke-linejoin:miter;stroke-opacity:1" />
          <path
             id="path1888"
             d="M 416.00774,518.95279 L 412.47221,515.41726 L 417.62065,513.49464 L 416.00774,518.95279 z "
             style="fill:black;fill-opacity:1;fill-rule:evenodd;stroke:black;stroke-width:1px;stroke-linecap:butt;stroke-linejoin:miter;stroke-opacity:1" />
          <path
             id="path1890"
             d="M 411.93854,544.20659 L 415.47407,540.67107 L 417.39669,545.81951 L 411.93854,544.20659 z "
             style="fill:black;fill-opacity:1;fill-rule:evenodd;stroke:black;stroke-width:1px;stroke-linecap:butt;stroke-linejoin:miter;stroke-opacity:1" />
          <path
             transform="matrix(1.056264,0,0,1.045084,-24.35541,-26.64766)"
             d="M 425.40049 532.25989 A 21.844549 21.844549 0 1 1  381.71139,532.25989 A 21.844549 21.844549 0 1 1  425.40049 532.25989 z"
             sodipodi:ry="21.844549"
             sodipodi:rx="21.844549"
             sodipodi:cy="532.25989"
             sodipodi:cx="403.55594"
             id="path1892"
             style="opacity:0.97000002;fill:none;fill-opacity:1;stroke:black;stroke-width:1.38103783;stroke-miterlimit:4;stroke-dasharray:none;stroke-opacity:1"
             sodipodi:type="arc" />
        </g>
        <path
           sodipodi:type="arc"
           style="opacity:0.97000002;fill:none;fill-opacity:1;stroke:black;stroke-width:1.45099998;stroke-miterlimit:4;stroke-dasharray:none;stroke-opacity:1"
           id="path3702"
           sodipodi:cx="325.64792"
           sodipodi:cy="530.49213"
           sodipodi:rx="44.067905"
           sodipodi:ry="44.067905"
           d="M 369.71582 530.49213 A 44.067905 44.067905 0 1 1  281.58001,530.49213 A 44.067905 44.067905 0 1 1  369.71582 530.49213 z" />
        <path
           style="fill:none;fill-rule:evenodd;stroke:black;stroke-width:1px;stroke-linecap:butt;stroke-linejoin:miter;stroke-opacity:1"
           d="M 349.51278,531.12347 L 370,530.87093 L 370,531.37601"
           id="path3706" />
        <path
           style="fill:none;fill-rule:evenodd;stroke:black;stroke-width:1px;stroke-linecap:butt;stroke-linejoin:miter;stroke-opacity:1"
           d="M 301.78307,531.62854 L 281.83256,531.62854"
           id="path3708" />
        <path
           style="fill:none;fill-rule:evenodd;stroke:black;stroke-width:1px;stroke-linecap:butt;stroke-linejoin:miter;stroke-opacity:1"
           d="M 326.02673,507.36218 L 326.02673,485.16153"
           id="path3710" />
        <path
           style="fill:none;fill-rule:evenodd;stroke:black;stroke-width:1px;stroke-linecap:butt;stroke-linejoin:miter;stroke-opacity:1"
           d="M 326.27927,553.8519 L 326.53181,574.05495"
           id="path3712" />
        <path
           style="fill:none;fill-rule:evenodd;stroke:black;stroke-width:1px;stroke-linecap:butt;stroke-linejoin:miter;stroke-opacity:1"
           d="M 342.18918,513.69834 L 355,497.36218"
           id="path3714" />
        <path
           style="fill:none;fill-rule:evenodd;stroke:black;stroke-width:1px;stroke-linecap:butt;stroke-linejoin:miter;stroke-opacity:1"
           d="M 341.43156,547.36218 L 354.56354,563.95343"
           id="path3716" />
        <path
           style="fill:none;fill-rule:evenodd;stroke:black;stroke-width:1px;stroke-linecap:butt;stroke-linejoin:miter;stroke-opacity:1"
           d="M 309.35922,547.36218 L 295.46962,561.68058"
           id="path3718" />
        <path
           style="fill:none;fill-rule:evenodd;stroke:black;stroke-width:1px;stroke-linecap:butt;stroke-linejoin:miter;stroke-opacity:1"
           d="M 309.35922,514.20341 L 296.73231,496.02067"
           id="path3720" />
        <path
           sodipodi:type="arc"
           style="opacity:0.97000002;fill:none;fill-opacity:1;stroke:black;stroke-width:1.45099998;stroke-miterlimit:4;stroke-dasharray:none;stroke-opacity:1"
           id="path3722"
           sodipodi:cx="330.44617"
           sodipodi:cy="532.00732"
           sodipodi:rx="52.149124"
           sodipodi:ry="49.623745"
           d="M 382.59529 532.00732 A 52.149124 49.623745 0 1 1  278.29704,532.00732 A 52.149124 49.623745 0 1 1  382.59529 532.00732 z"
           transform="matrix(0.999896,0,0,1.015158,-4.763756,-9.579154)" />
        <path
           style="fill:black;fill-opacity:1;fill-rule:evenodd;stroke:black;stroke-width:0.08522195;stroke-linecap:butt;stroke-linejoin:miter;stroke-miterlimit:4;stroke-dasharray:none;stroke-opacity:1"
           d="M 369.29168,526.58285 C 370.34729,529.55251 370.14715,532.71945 369.29168,535.98933 L 377.41844,531.05128 L 369.29168,526.58285 z "
           id="path3724"
           sodipodi:nodetypes="cccc" />
        <path
           style="fill:black;fill-opacity:1;fill-rule:evenodd;stroke:black;stroke-width:0.08144661;stroke-linecap:butt;stroke-linejoin:miter;stroke-miterlimit:4;stroke-dasharray:none;stroke-opacity:1"
           d="M 331.13369,574.1693 C 328.16284,575.13307 324.99464,574.95034 321.72345,574.1693 L 326.66347,581.58901 L 331.13369,574.1693 z "
           id="path4617"
           sodipodi:nodetypes="cccc" />
        <path
           style="fill:black;fill-opacity:1;fill-rule:evenodd;stroke:black;stroke-width:0.08522195;stroke-linecap:butt;stroke-linejoin:miter;stroke-miterlimit:4;stroke-dasharray:none;stroke-opacity:1"
           d="M 281.74195,527.42468 C 280.68634,530.39434 280.88648,533.56128 281.74195,536.83116 L 273.61519,531.89311 L 281.74195,527.42468 z "
           id="path4619"
           sodipodi:nodetypes="cccc" />
        <path
           style="fill:black;fill-opacity:1;fill-rule:evenodd;stroke:black;stroke-width:0.07990775;stroke-linecap:butt;stroke-linejoin:miter;stroke-miterlimit:4;stroke-dasharray:none;stroke-opacity:1"
           d="M 321.72193,487.17996 C 324.58099,486.21599 327.62997,486.39875 330.77807,487.17996 L 326.02393,479.75872 L 321.72193,487.17996 z "
           id="path4621"
           sodipodi:nodetypes="cccc" />
      </g>
      <flowRoot
         inkscape:export-ydpi="300"
         inkscape:export-xdpi="300"
         inkscape:export-filename="F:\Qgis N_arrows\TOT\25T.png"
         transform="translate(154.4883,241.2908)"
         style="font-size:56px;font-family:Arial Black"
         id="flowRoot2798"
         xml:space="preserve"><flowRegion
           id="flowRegion2800"><rect
             style="font-size:56px;font-family:Arial Black"
             y="270.93362"
             x="321.42856"
             height="74.285713"
             width="68.571426"
             id="rect2802" /></flowRegion><flowPara
           id="flowPara2804">E</flowPara></flowRoot>      <flowRoot
         inkscape:export-ydpi="300"
         inkscape:export-xdpi="300"
         inkscape:export-filename="F:\Qgis N_arrows\TOT\25T.png"
         transform="translate(-6.391678,80.04433)"
         style="font-size:56px;font-family:Arial Black"
         id="flowRoot2790"
         xml:space="preserve"><flowRegion
           id="flowRegion2792"><rect
             style="font-size:56px;font-family:Arial Black"
             y="270.93362"
             x="321.42856"
             height="74.285713"
             width="68.571426"
             id="rect2794" /></flowRegion><flowPara
           id="flowPara2796">N</flowPara></flowRoot>      <flowRoot
         inkscape:export-ydpi="300"
         inkscape:export-xdpi="300"
         inkscape:export-filename="F:\Qgis N_arrows\TOT\25T.png"
         transform="translate(2.942032,395.4)"
         style="font-size:56px;font-family:Arial Black"
         id="flowRoot1980"
         xml:space="preserve"><flowRegion
           id="flowRegion1982"><rect
             style="font-size:56px;font-family:Arial Black"
             y="270.93362"
             x="321.42856"
             height="74.285713"
             width="68.571426"
             id="rect1984" /></flowRegion><flowPara
           id="flowPara1986">S</flowPara></flowRoot>      <flowRoot
         inkscape:export-ydpi="300"
         inkscape:export-xdpi="300"
         inkscape:export-filename="F:\Qgis N_arrows\TOT\25T.png"
         transform="translate(-173.2525,250.5212)"
         style="font-size:56px;font-family:Arial Black"
         id="flowRoot1988"
         xml:space="preserve"><flowRegion
           id="flowRegion1990"><rect
             style="font-size:56px;font-family:Arial Black"
             y="270.93362"
             x="321.42856"
             height="74.285713"
             width="68.571426"
             id="rect1992" /></flowRegion><flowPara
           id="flowPara1994">W</flowPara></flowRoot>    </g>
  </g>
</svg>
